X:1
T: Margaret's Reel
C:Tara Bryan
R:Reel
Q: 232
K:D
M:4/4
L:1/8
|:A2|d2 de fa gf|ed ef d2 A2|BA GF EF GA|FA GF E2 A2|
d2 de fa gf|ed ef d2 a2|gf ed cd eg|f2 d2 d2:|
|:a2|b2 d'2 b2 ag|a2 d'2 a2 gf|g2 e2 ab ag|fe fg a2 d2|
b2 d'2 b2 ag|a2 d'2 a2 gf|ef ge ag fe|f2 d2 d2:|
